X:6777
T:Happletons March.  (I think it's an H)
M:4/4
L:1/8
S:Armitt MS
N:Key signature is not totally clear, there is a lot of blotting from
N:another tune, but it appears to be G major, however it feels like D to
N:m
K:G major
d2ddd2A2|d2fed4|f2fff2d2|abagf3g|abag fgaf|gagf efge|fgfe dbag|e3dd4:||:
a2aaa2a2|b2aga4|f2fff2d2|edcB A2|g2|abag fgaf|gagf efge|fgfe dbag|e3dd4:
|
|
